app/assets/fonts/src/U26E4_PENTAGRAM.svg

<?xml version="1.0" encoding="utf-8"?>
<!-- Generated by IcoMoon.io -->
<!DOCTYPE svg PUBLIC "-//W3C//DTD SVG 1.1//EN" "http://www.w3.org/Graphics/SVG/1.1/DTD/svg11.dtd">
<svg version="1.1" xmlns="http://www.w3.org/2000/svg" xmlns:xlink="http://www.w3.org/1999/xlink" width="1024" height="1024" viewBox="0 0 1024 1024"><g id="icomoon-ignore">
</g>
<path d="M511.832 24.188l-120.609 372.409-391.223 0.336 316.304 230.131-120.609 372.746c81.514-59.783 229.126-166.929 316.304-230.131l316.64 229.963-120.944-372.409 316.304-230.467h-390.887l-121.281-372.578zM511.832 279.181l38.467 117.418-76.599 0.168 38.131-117.586zM365.522 475.381l-23.517 73.071-99.948-72.734 123.464-0.336zM448.168 475.381h127.664l39.476 121.617-103.307 75.254-103.307-75.254 39.476-121.617zM658.478 475.381h123.297l-99.611 73.071-23.686-73.071zM383.16 675.948l62.152 44.85-99.948 72.734 37.796-117.586zM641.176 675.948l37.796 117.586-99.78-72.567v-0.168l61.984-44.85z"></path>
</svg>

<svg xmlns="http://www.w3.org/2000/svg" width="1024" height="1024" viewBox="0 0 1024 1024"><path d="M511.832 24.188l-120.61 372.41L0 396.932l316.304 230.13-120.61 372.747C277.21 940.026 424.822 832.88 512 769.68l316.64 229.96-120.945-372.41L1024 396.767H633.11L511.832 24.187zm0 254.993L550.3 396.6l-76.6.167 38.13-117.586zm-146.31 196.2l-23.517 73.073-99.948-72.734 123.464-.337zm82.646 0h127.664L615.308 597 512 672.252l-103.306-75.254L448.17 475.38zm210.31 0h123.297l-99.61 73.073-23.687-73.07zM383.16 675.95l62.152 44.85-99.948 72.734 37.796-117.586zm258.016 0l37.796 117.586-99.78-72.567v-.17l61.984-44.85z"/></svg>
